X:66
T: ALS DIE WUNDERSCHOENE ANNA
N: E0042L
O: Europa, Mitteleuropa, Deutschland, Harz, Clausthal, Altenau
R: erzaehlendes Volks - Lied, Ritter -, Raeuber - Sage
M: 2/4
L: 1/8
K: Eb
EF | GGGG | GG
FE | FB,B,B, | B,z
FG | AAAA | AA
cB | AGGG | G2z
c | BAGF | EEE
E | c2c2 | B2z
c | BAGF | EEE
G | B2BA | G2

@@@ Tune index: 3716
